X:1665
T:Bob Horn's Hornpipe.WM.005
M:4/4
L:1/8
Q:180
S:Wm.Mittell's MS,New Romney,Kent,1799
R:Hornpipe
O:England
A:Kent
N:
Z:vmp.Chris Partington
K:G
GBdB GBdB|c2e2-e2.c2|BdBG cecA|F2A2-A2.A2|!
GBdB GBdB|e2g2-g2ag|{f}f2ed{e}e2d-c|d2d2-d2.d2:|!
|:defe defe|e2c2-c2.c2|efgf efgf|f2d2-d2.d2|!
GBdB GBdB|c2e2-e2.c2|BdBA ecBA|G2G2-G2.G2:|]
W:Needs Csharp in bar 6 |]
